symbols/web/flash_auto/materialsymbolsrounded/flash_auto_wght100grad200_24px.svg

<svg xmlns="http://www.w3.org/2000/svg" height="24" width="24"><path d="M14.525 10.35q-.35 0-.512-.225-.163-.225-.038-.55l2.8-7.225q.075-.275.363-.463.287-.187.587-.187t.587.187q.288.188.363.463L21.45 9.6q.125.3-.037.525-.163.225-.513.225-.15 0-.262-.088-.113-.087-.163-.212l-.9-2.3h-3.7l-.9 2.275q-.075.15-.187.237-.113.088-.263.088Zm1.7-3.55h3l-1.475-4h-.15Zm-9.3 14.025q-.2.35-.613.25-.412-.1-.412-.525V14H4.05q-.45 0-.75-.3t-.3-.75v-9.3q0-.45.3-.75t.75-.3h6.9q.6 0 .888.475.287.475.062 1L8.75 11.15h1.975q.6 0 .9.525.3.525 0 1.05Z"/></svg>

<svg xmlns="http://www.w3.org/2000/svg" height="24" width="24"><path d="M14.525 10.35Q14.175 10.35 14.013 10.125Q13.85 9.9 13.975 9.575L16.775 2.35Q16.85 2.075 17.138 1.887Q17.425 1.7 17.725 1.7Q18.025 1.7 18.312 1.887Q18.6 2.075 18.675 2.35L21.45 9.6Q21.575 9.9 21.413 10.125Q21.25 10.35 20.9 10.35Q20.75 10.35 20.638 10.262Q20.525 10.175 20.475 10.05L19.575 7.75H15.875L14.975 10.025Q14.9 10.175 14.788 10.262Q14.675 10.35 14.525 10.35ZM16.225 6.8H19.225L17.75 2.8H17.6ZM6.925 20.825Q6.725 21.175 6.312 21.075Q5.9 20.975 5.9 20.55V14H4.05Q3.6 14 3.3 13.7Q3 13.4 3 12.95V3.65Q3 3.2 3.3 2.9Q3.6 2.6 4.05 2.6H10.95Q11.55 2.6 11.838 3.075Q12.125 3.55 11.9 4.075L8.75 11.15H10.725Q11.325 11.15 11.625 11.675Q11.925 12.2 11.625 12.725Z"/></svg>
